X:1
T:No Night in Heaven
T: No Night in Heaven
T:Albert Caswell Neece
T:J. S. Kimbrough, 1904
T:Public Domain Courtesy of the Cyber Hymnal™
T:Public Domain Courtesy of the Cyber Hymnal™
C:Albert Caswell Neece
Z:Public Domain
Z:Courtesy of the Cyber Hymnal™
%%score ( 1 2 ) ( 3 4 )
L:1/8
Q:1/4=100
M:4/4
K:E
V:1 treble 
V:2 treble 
V:3 bass 
V:4 bass 
V:1
 E2 | [EG]2 [EB]2 [EB]3 E | [EG]2 [DF]2 E3 [EG] | [DF]2 [DB]2 [DB]3 [Fd] | %4
w: 1.~No|night in Heav’n! O|bless- èd thought, With|joy and ho- ly|
w: 2.~No|tears in Heav’n! no-|thing but joy, Sweet|hap- pi- ness with-|
w: 3.~No|long- ing for the|day to come, No|wait- ing for the|
w: 4.~Ce-|les- tial beau- ties|ev- er- more Shall|bloom on that e-|
 [Fc]2 [E^A]2 !fermata![DB]2 E2 | [EG]2 [GB]2 [GB]3 [EG] | [EA]2 [EB]2 [Ec]3 [Ec] | %7
w: rap- ture fraught, No|sha- dows veil its|glo- ry bright, Nor|
w: out al- loy, No|cry- ing there, no|grief or pain, No|
w: com- ing morn, No|wan- ing of the|glor- ious light, No|
w: ter- nal shore, While|plea- sures die not|nor de- cay, In|
 [Ae]2 [Ac]2 [GB]3 E | [DF]2 [DG]2 !fermata!E3/2 ||"^Refrain" G<G A/ | %10
w: dim its ra- diant|heav’n- ly light.||
w: sor- rows ev- er|come a- gain.|To that fair|
w: fad- ing of the|land- scape bright.||
w: that bright clime of|end- less day.||
 (z3/2 [EB]>)[EG][Ge]>[EG] x5/2 | F2- [DF]>[DF] [DF]>[EG] x2 | A4- [DA]>d c>A | %13
w: |||
w: * land, O let|* me come, When sinks|* at last life’s set-|
w: |||
w: |||
 z3/2 [EG]>[GB][GB]>[EG] x5/2 | e4- | [Ge]>[EG] [FA]>[GB] | [Ac]4- [Ac]>[Ac] [Ae]>[Ac] | %17
w: ||||
w: * ting sun, And||* hope in glad|fru- * i- tion blest,|
w: ||||
w: ||||
 [GB]3 E [DF]2 [DG]2 | E6 |] %19
w: ||
w: Shall end in ev-|er-|
w: ||
w: ||
V:2
 E2 | x7 E | x4 E3 x | x8 | x6 E2 | x8 | x8 | x7 E | x4 E3/2 || x5/2 | B4- G/ G3/2 F/ x3/2 | %11
 D3/2 D/ D3/2 D/ x4 | F3/2 D/ F3/2 E/ x4 | G4- E/ E3/2 E/ x3/2 | G>G A>A | x4 | x8 | x3 E x4 | %18
 E6 |] %19
V:3
 [E,G,]2 | [E,B,]2 [E,G,]2 [E,G,]3 [E,G,] | [B,,B,]2 [B,,A,]2 [E,G,]3 [E,B,] | %3
w: ~|~ ~ ~ ~|~ ~ ~ ~|
 [B,,B,]2 [B,,F,]2 [B,,F,]3 [B,,B,] | [F,^A,]2 [F,C]2 !fermata![B,,B,]2 [E,G,]2 | %5
w: ~ ~ ~ ~|~ ~ ~ ~|
 [E,B,]2 [E,B,]2 [E,B,]3 [=D,B,] | [C,A,]2 [B,,G,]2 [A,,A,]3 A, | [A,C]2 [A,E]2 [E,E]3 [E,G,] | %8
w: ~ ~ ~ ~|~ ~ ~ ~|~ ~ ~ ~|
 [B,,A,]2 [B,,B,]2 !fermata![E,G,]3/2 || E,<E, F,/ | G,>[E,B,] [E,B,]>[E,A,] [E,G,]3/2 z/ z2 | %11
w: ~ ~ ~|~ ~ ~|~ To that fair land,|
 z3/2 [B,,B,]/ [B,,B,]>[B,,B,] [B,,B,]3/2 z/ z2 | z3/2 [B,,B,]/ [B,,D]>[B,,C] [B,,B,]>B, A,>F, | %13
w: O let me come|When sinks at last ~ ~ ~|
 E,>[E,B,] [E,B,]>[E,B,] [E,B,]3/2 z/ z2 | z3/2 [E,B,]/ [E,C]>[E,=C] | [E,B,]3/2 z/ z2 | %16
w: ~ life’s set- ting sun,|And hope in|glad|
 z3/2 [A,E]/ [A,E]>[A,E] [A,E]>[A,E] [A,C]>[A,E] | [E,E]3 [E,G,] [B,,A,]2 [B,,B,]2 | [E,G,]6 |] %19
w: fru- i- tion blest, * * *|||
V:4
 x2 | x8 | x8 | x8 | x8 | x8 | x7 A, | x8 | x11/2 || x5/2 | x8 | x8 | x8 | x8 | x4 | x4 | x8 | x8 | %18
 x6 |] %19

